X: 1
T: La Nouvelle Vergne   [A/Am]
R: jig
Z: 2014 John Chambers <jc:trillian.mit.edu>
B: Giovanni Andrea Gallini  "A New Collection of Forty-Four Cotillions" c.1755 #20
M: 6/8
L: 1/8
K: A
% - - - - - - - - - - - - - - - - - - - - - - - - - - - - -
% Voice 1 staff breaks arranged to fit a wider page:
V: 1
"A"ecA |\
"E7"{GA}B2E d2c | "A"{c}B2A ecA | "D"f2e "Bm"d2c | "E7"{c}B3 "A"ecA "I"|\
"E7"{GA}B2E d2c | "A"{c}B2A "B7"af^d | "E"eBA "B7"G2F | "E"{F}E3 :|
"E"BGE |\
"A"{Bc}dc2 "D"f2e | "Bm"d2c "E7"eBd | "A"ced cBA | "E"GFE "A7"ae=g |\
"Bm"T=g2f "B7"bfa | "E"gb^d ebc | "D"dfB "E7"ceG | "A"A3 !segno!|][K:=f=c=g]
P: Mineur
K: Am
EDF |\
"Am"E2A "E7"^G2B | "Am"TB2A "E7"cBd | "Am"c2e "G7"d2f | "C"Tf2e "A"a^ce |\
"Bm"d^cd "G"gBd | "Am"=cBc "Dm"fed | "B7"cBA ^G2A | "E"B2E EDF |
"Am"E2A "E7"^G2B | "Am"TB2A "E7"cBd | "Am"c2e "G7"d2f | "C"Tf2e "B7"ag^f |\
"Em"gb^d "(Am)"dec | "Em"B2c "B7"A2c | "Em"BAG "B7"^F2E | "Em"E3 ||
"Am"ecA |\
"Am"{fg}a2A "A7"a2g | "Dm"f2d "G"dBG | {fe}g2G "G7"g2f | "C"e2c "F"cAF |\
"F"f2F f2e | "G"dcB "E7"ce^g | "Am"aed "E7"c2B | "Am"A3 !segno!|]

%%sep 1 1 500

